X:3372
T:Kirree fo niaghtey
T:The sheep under the snow
C:John Matt, Gretch Veg, Laxey.
C:Traditional
O:Isle of Man
B:Kiaull Vannin #337
N:See also KV 223, 300, 301, 407
M:3/4 
L:1/4  
K:G
A/>B/|c EE|DG A/>G/|Aed|e2 e/>f/|gf g|e/>d/ B G/>B/|A/>G/ EG|A2 A/>B/|
c/>d/ eg|c/>B/ AB|c/>B/ c/>d/ e/>f/|g2 A/>B/|c/>d/ eA|A/>G/ Ec|B/>A/ EG|A2||

